assets/Shaved ice/Flat/shaved_ice_flat.svg

<svg width="32" height="32" viewBox="0 0 32 32" fill="none" xmlns="http://www.w3.org/2000/svg">
<path d="M7.99999 18L6.67999 15.63C6.78865 15.5794 6.87611 15.2985 6.97918 15.2389C7.83419 14.7447 8.25938 14.1649 8.56281 13.21C8.79281 12.47 9.73046 11.7644 10.4905 11.7644C11.2505 11.7644 12.1078 12.49 12.3378 13.21C12.8478 14.83 14.1622 15.8072 15.9522 15.8072C17.7422 15.8072 19.0565 14.82 19.5665 13.21C19.7965 12.48 20.71 11.7644 21.47 11.7644C22.23 11.7644 23.0847 12.49 23.3147 13.21C23.6133 14.1497 24.1844 14.7481 25.0195 15.2389C25.1353 15.307 25.197 15.574 25.32 15.63L24 18L23.4486 18.2435H8.56281L7.99999 18Z" fill="#FFDEA7"/>
<path d="M16 2C10.48 2 6 6.48 6 12C6 13.28 6.24 14.5 6.68 15.63C7.69 15.16 8.47 14.29 8.81 13.22C9.04 12.48 9.73 12 10.49 12C11.25 12 11.94 12.49 12.17 13.21C12.68 14.83 14.19 16 15.98 16C17.77 16 19.28 14.83 19.79 13.22C20.02 12.49 20.71 12.01 21.47 12.01H21.51C22.27 12.01 22.96 12.5 23.19 13.22C23.53 14.29 24.31 15.17 25.32 15.63C25.76 14.5 26 13.28 26 12C25.99 6.48 21.52 2 16 2Z" fill="#FF6DC6"/>
<path d="M14.31 5.94004C14.8678 5.94004 15.32 5.48785 15.32 4.93004C15.32 4.37224 14.8678 3.92004 14.31 3.92004C13.7522 3.92004 13.3 4.37224 13.3 4.93004C13.3 5.48785 13.7522 5.94004 14.31 5.94004Z" fill="#FBB8AB"/>
<path d="M10.96 7.39C11.5178 7.39 11.97 6.9378 11.97 6.38C11.97 5.82219 11.5178 5.37 10.96 5.37C10.4022 5.37 9.95001 5.82219 9.95001 6.38C9.95001 6.9378 10.4022 7.39 10.96 7.39Z" fill="#FBB8AB"/>
<path d="M14.97 8.44994C14.97 9.00775 14.5178 9.45994 13.96 9.45994C13.4022 9.45994 12.95 9.00775 12.95 8.44994C12.95 7.89213 13.4022 7.43994 13.96 7.43994C14.5178 7.43994 14.97 7.89213 14.97 8.44994Z" fill="#FBB8AB"/>
<path d="M25.1 8C25.76 8 26.19 8.69 25.9 9.28L21.5745 18.19H19.5945L24.3 8.5C24.45 8.19 24.77 8 25.1 8Z" fill="#00A6ED"/>
<path d="M8 18L15.41 29.68C15.68 30.11 16.32 30.11 16.59 29.68L24 18H8Z" fill="#26EAFC"/>
</svg>

<svg xmlns="http://www.w3.org/2000/svg" width="32" height="32" fill="none"><path fill="#FFDEA7" d="m8 18-1.32-2.37c.109-.05.196-.332.3-.391.854-.494 1.28-1.074 1.583-2.029.23-.74 1.167-1.446 1.928-1.446.76 0 1.617.726 1.847 1.446.51 1.62 1.824 2.597 3.614 2.597 1.79 0 3.104-.987 3.615-2.597.23-.73 1.143-1.446 1.903-1.446s1.615.726 1.845 1.446c.298.94.87 1.538 1.704 2.029.116.068.178.335.301.391L24 18l-.551.244H8.563L8 18Z"/><path fill="#FF6DC6" d="M16 2C10.48 2 6 6.48 6 12c0 1.28.24 2.5.68 3.63a4.003 4.003 0 0 0 2.13-2.41c.23-.74.92-1.22 1.68-1.22.76 0 1.45.49 1.68 1.21A3.99 3.99 0 0 0 15.98 16c1.79 0 3.3-1.17 3.81-2.78.23-.73.92-1.21 1.68-1.21h.04c.76 0 1.45.49 1.68 1.21a3.976 3.976 0 0 0 2.13 2.41c.44-1.13.68-2.35.68-3.63-.01-5.52-4.48-10-10-10Z"/><path fill="#FBB8AB" d="M14.31 5.94a1.01 1.01 0 1 0 0-2.02 1.01 1.01 0 0 0 0 2.02ZM10.96 7.39a1.01 1.01 0 1 0 0-2.02 1.01 1.01 0 0 0 0 2.02ZM14.97 8.45a1.01 1.01 0 1 1-2.02 0 1.01 1.01 0 0 1 2.02 0Z"/><path fill="#00A6ED" d="M25.1 8c.66 0 1.09.69.8 1.28l-4.325 8.91h-1.98L24.3 8.5c.15-.31.47-.5.8-.5Z"/><path fill="#26EAFC" d="m8 18 7.41 11.68a.7.7 0 0 0 1.18 0L24 18H8Z"/></svg>
